X: 4345
M: 6/8
L: 1/8
K: G
|:\
(g2a/g/) fed | (f2g/f/) edc | (e2f/e/) dcB |[1 d3- d2G :|\
[2 d3 cBA | BAG FED | ^ABG cB=A | BAG FED | G2z z |]


